src/main/resources/extra-icons/helmChartsDirectory.svg

<svg xmlns="http://www.w3.org/2000/svg" width="16" height="16" viewBox="0 0 16 16">
  <g fill="none" fill-rule="evenodd">
    <path fill="#40B6E0" fill-opacity=".6" fill-rule="evenodd" d="M15,7.25716211 C14.0490595,6.47181764 12.8296292,6 11.5,6 C8.46243388,6 6,8.46243388 6,11.5 C6,12.0200119 6.07216716,12.5231682 6.20703249,13 L1,13 L1,2.05128 C1,2.02295884 1.02295884,2 1.05128,2 L4.97888,2 C5.61570121,2.03457993 6.22161957,2.28559443 6.69633,2.71149 L7.98457,4 L15,4 L15,7.25716211 Z"/>
    <path fill="#297FA5" d="M11.5289286,13.759 C11.5205714,13.7583571 11.5154286,13.7512857 11.5064286,13.7512857 L11.4935714,13.7512857 C11.4852143,13.7512857 11.4794286,13.7583571 11.4710714,13.759 C10.2355,13.7435714 9.23842857,12.7394286 9.23842857,11.5 C9.23842857,10.2509286 10.2509286,9.23842857 11.5,9.23842857 C12.7490714,9.23842857 13.7622143,10.2509286 13.7622143,11.5 C13.7622143,12.7394286 12.7645,13.7435714 11.5289286,13.759 M15.4516429,11.0821429 L14.6757143,11.1162143 C14.6037143,10.5183571 14.3722857,9.97578571 14.0187143,9.52514286 L14.5889286,9.00185714 C14.7496429,8.84242857 14.8460714,8.48307143 14.6866429,8.32235714 L14.6776429,8.31335714 C14.5169286,8.15392857 14.1582143,8.251 13.9987857,8.41107143 L13.4748571,8.98128571 C13.0242143,8.62835714 12.4816429,8.39628571 11.8844286,8.32492857 L11.9178571,7.549 C11.9178571,7.32271429 11.7320714,7 11.5064286,7 L11.4935714,7 C11.2679286,7 11.0821429,7.32271429 11.0821429,7.549 L11.1155714,8.32492857 C10.5183571,8.39628571 9.97578571,8.62835714 9.52514286,8.98128571 L9.00121429,8.41107143 C8.84178571,8.251 8.48307143,8.15392857 8.32235714,8.31335714 L8.31335714,8.32235714 C8.15392857,8.48307143 8.25035714,8.84242857 8.41107143,9.00185714 L8.98128571,9.52514286 C8.62771429,9.97578571 8.39628571,10.5183571 8.32492857,11.1162143 L7.549,11.0821429 C7.32271429,11.0821429 7,11.2679286 7,11.4942143 L7,11.5064286 C7,11.7327143 7.32271429,11.9185 7.549,11.9185 L8.32492857,11.8844286 C8.39628571,12.4822857 8.62771429,13.0242143 8.98128571,13.4755 L8.41107143,13.9987857 C8.25035714,14.1582143 8.15392857,14.5175714 8.31335714,14.6782857 L8.32235714,14.6866429 C8.48307143,14.8460714 8.84178571,14.7496429 9.00121429,14.5889286 L9.52514286,14.0187143 C9.97578571,14.3722857 10.5183571,14.6037143 11.1155714,14.6757143 L11.0821429,15.4516429 C11.0821429,15.6772857 11.2679286,16 11.4935714,16 L11.5064286,16 C11.7320714,16 11.9178571,15.6772857 11.9178571,15.4516429 L11.8844286,14.6757143 C12.4816429,14.6037143 13.0242143,14.3722857 13.4748571,14.0187143 L13.9987857,14.5889286 C14.1582143,14.7496429 14.5169286,14.8460714 14.6776429,14.6866429 L14.6866429,14.6782857 C14.8460714,14.5175714 14.7496429,14.1582143 14.5889286,13.9987857 L14.0187143,13.4755 C14.3722857,13.0242143 14.6037143,12.4822857 14.6757143,11.8844286 L15.4516429,11.9185 C15.6772857,11.9185 16,11.7327143 16,11.5064286 L16,11.4942143 C16,11.2679286 15.6772857,11.0821429 15.4516429,11.0821429"/>
  </g>
</svg>

<svg xmlns="http://www.w3.org/2000/svg" width="16" height="16" viewBox="0 0 16 16"><g fill="none" fill-rule="evenodd"><path fill="#40B6E0" fill-opacity=".6" d="M15 7.257A5.5 5.5 0 0 0 6.207 13H1V2.051C1 2.023 1.023 2 1.051 2H4.98a2.8 2.8 0 0 1 1.717.711L7.985 4H15v3.257Z"/><path fill="#297FA5" d="M11.529 13.759c-.008 0-.014-.008-.023-.008h-.012c-.009 0-.015.007-.023.008a2.26 2.26 0 0 1 .029-4.52 2.26 2.26 0 0 1 .029 4.52m3.923-2.677-.776.034a3.18 3.18 0 0 0-.657-1.59l.57-.524c.16-.16.257-.519.098-.68l-.01-.009c-.16-.16-.519-.062-.678.098l-.524.57a3.18 3.18 0 0 0-1.59-.656l.033-.776c0-.226-.186-.549-.412-.549h-.012c-.226 0-.412.323-.412.549l.034.776a3.18 3.18 0 0 0-1.59.656L9 8.411c-.16-.16-.518-.257-.679-.098l-.009.01c-.16.16-.063.52.098.679l.57.523c-.353.45-.585.993-.656 1.591l-.776-.034c-.226 0-.549.186-.549.412v.012c0 .227.323.412.549.412l.776-.034c.071.598.303 1.14.656 1.591l-.57.524c-.16.16-.257.519-.098.68l.01.008c.16.16.519.063.678-.098l.524-.57c.45.353.993.585 1.59.657l-.033.776c0 .225.186.548.412.548h.012c.226 0 .412-.323.412-.548l-.034-.776a3.18 3.18 0 0 0 1.59-.657l.525.57c.16.16.518.257.679.098l.009-.009c.16-.16.063-.52-.098-.68l-.57-.522c.353-.452.585-.994.657-1.592l.776.034c.225 0 .548-.185.548-.412v-.012c0-.226-.323-.412-.548-.412"/></g></svg>
